dist/img/svg/ic_image.svg

<svg width="30" height="30" viewBox="0 0 30 30" fill="none" xmlns="http://www.w3.org/2000/svg">
<g clip-path="url(#clip0)">
<path d="M21.8161 30C21.6061 30 21.3911 29.9737 21.1786 29.9175L1.8499 24.7412C0.524897 24.3762 -0.265103 23.0037 0.0823969 21.6787L2.52115 12.5887C2.61115 12.255 2.95365 12.0612 3.28615 12.1462C3.6199 12.235 3.8174 12.5787 3.72865 12.9112L1.29115 21.9987C1.1174 22.6612 1.5149 23.3512 2.17865 23.535L21.4999 28.7087C22.1636 28.8837 22.8486 28.4887 23.0211 27.8287L23.9974 24.2112C24.0874 23.8775 24.4299 23.6787 24.7636 23.77C25.0974 23.86 25.2936 24.2037 25.2049 24.5362L24.2299 28.1487C23.9361 29.2612 22.9236 30 21.8161 30Z" fill="#9C938C"/>
<path d="M27.5 22.5H7.5C6.12125 22.5 5 21.3787 5 20V5C5 3.62125 6.12125 2.5 7.5 2.5H27.5C28.8787 2.5 30 3.62125 30 5V20C30 21.3787 28.8787 22.5 27.5 22.5ZM7.5 3.75C6.81125 3.75 6.25 4.31125 6.25 5V20C6.25 20.6887 6.81125 21.25 7.5 21.25H27.5C28.1887 21.25 28.75 20.6887 28.75 20V5C28.75 4.31125 28.1887 3.75 27.5 3.75H7.5Z" fill="#9C938C"/>
<path d="M11.25 11.25C9.87125 11.25 8.75 10.1287 8.75 8.75C8.75 7.37125 9.87125 6.25 11.25 6.25C12.6287 6.25 13.75 7.37125 13.75 8.75C13.75 10.1287 12.6287 11.25 11.25 11.25ZM11.25 7.5C10.5612 7.5 10 8.06125 10 8.75C10 9.43875 10.5612 10 11.25 10C11.9387 10 12.5 9.43875 12.5 8.75C12.5 8.06125 11.9387 7.5 11.25 7.5Z" fill="#9C938C"/>
<path d="M5.71271 21.1625C5.55271 21.1625 5.39271 21.1012 5.27021 20.98C5.02646 20.7362 5.02646 20.34 5.27021 20.0962L11.174 14.1925C11.8815 13.485 13.1177 13.485 13.8252 14.1925L15.5827 15.95L20.4477 10.1125C20.8015 9.68875 21.3215 9.4425 21.8752 9.4375H21.889C22.4364 9.4375 22.9552 9.675 23.3127 10.0912L29.8502 17.7187C30.0752 17.98 30.0452 18.375 29.7827 18.6C29.5214 18.825 29.1277 18.7962 28.9014 18.5325L22.364 10.905C22.2427 10.765 22.0752 10.6875 21.889 10.6875C21.759 10.6762 21.5302 10.7662 21.409 10.9125L16.1052 17.2762C15.9927 17.4112 15.829 17.4925 15.6527 17.5C15.4752 17.5125 15.3065 17.4425 15.1827 17.3175L12.9415 15.0762C12.7052 14.8412 12.294 14.8412 12.0577 15.0762L6.15396 20.98C6.03271 21.1012 5.87271 21.1625 5.71271 21.1625Z" fill="#9C938C"/>
</g>
<defs>
<clipPath id="clip0">
<rect width="30" height="30" fill="white"/>
</clipPath>
</defs>
</svg>

<svg width="30" height="30" viewBox="0 0 30 30" fill="none" xmlns="http://www.w3.org/2000/svg"><g clip-path="url(#clip0)" fill="#9C938C"><path d="M21.816 30c-.21 0-.425-.026-.637-.082L1.849 24.74a2.523 2.523 0 01-1.766-3.06l2.44-9.09a.625.625 0 011.208.322L1.29 22a1.269 1.269 0 00.888 1.536l19.32 5.174a1.244 1.244 0 001.522-.88l.976-3.618a.626.626 0 011.207.325l-.974 3.613A2.497 2.497 0 0121.816 30z"/><path d="M27.5 22.5h-20A2.503 2.503 0 015 20V5c0-1.379 1.121-2.5 2.5-2.5h20C28.879 2.5 30 3.621 30 5v15c0 1.379-1.121 2.5-2.5 2.5zM7.5 3.75c-.689 0-1.25.561-1.25 1.25v15c0 .689.561 1.25 1.25 1.25h20c.689 0 1.25-.561 1.25-1.25V5c0-.689-.561-1.25-1.25-1.25h-20z"/><path d="M11.25 11.25a2.503 2.503 0 01-2.5-2.5c0-1.379 1.121-2.5 2.5-2.5s2.5 1.121 2.5 2.5-1.121 2.5-2.5 2.5zm0-3.75c-.689 0-1.25.561-1.25 1.25S10.561 10 11.25 10s1.25-.561 1.25-1.25-.561-1.25-1.25-1.25zM5.713 21.163a.625.625 0 01-.443-1.066l5.904-5.905c.708-.707 1.944-.707 2.651 0l1.758 1.758 4.865-5.837c.354-.424.873-.67 1.427-.675h.014c.547 0 1.066.237 1.424.653l6.537 7.628a.624.624 0 11-.949.813l-6.537-7.627a.619.619 0 00-.475-.217c-.13-.012-.359.078-.48.224l-5.304 6.364a.623.623 0 01-.452.224.602.602 0 01-.47-.183l-2.242-2.24a.642.642 0 00-.883 0L6.154 20.98a.623.623 0 01-.441.183z"/></g><defs><clipPath id="clip0"><path fill="#fff" d="M0 0h30v30H0z"/></clipPath></defs></svg>
